X:591
T: A SCHUESSLA UND A RAINDEL
N: E0551
O: Europa, Mitteleuropa, Deutschland, Thueringen
R: Liebes - Lied, Versoehnung
M: 2/4
L: 1/16
K: C
C2 | C3G,G,2C2 | C3A,A,2
D2 | B,2G,2A,2B,2 | C4z2
C2 | C3G,G,2C2 | C3A,A,2
D2 | B,2G,2A,2B,2 | C4z2
C2 | B,2C2D2B,2 | C2D2E2
C2 | B,2C2D2B,2 | C2D2E2
C2 | G,2G,2G,2C2 | A,2A,2A,2
D2 | B,2G,2A,2B,2 | C4z2

@@@ Tune index: 4241
